images/feature-icons/scripting.svg

<?xml version="1.0" encoding="UTF-8"?>
<svg width="16" height="16" enable-background="new 0 0 20 20" fill="#000000" version="1.1" viewBox="0 0 17.778 17.778" xmlns="http://www.w3.org/2000/svg" xmlns:cc="http://creativecommons.org/ns#" xmlns:dc="http://purl.org/dc/elements/1.1/" xmlns:rdf="http://www.w3.org/1999/02/22-rdf-syntax-ns#">
<metadata>
<rdf:RDF>
<cc:Work rdf:about="">
<dc:format>image/svg+xml</dc:format>
<dc:type rdf:resource="http://purl.org/dc/dcmitype/StillImage"/>
<dc:title/>
</cc:Work>
</rdf:RDF>
</metadata>
<g transform="translate(-1.1111 -1.1111)">
<path d="m7 4v0.73c-0.68-0.32-1.4-0.5-2.13-0.5-1.28 0-2.56 0.49-3.54 1.46l2.12 2.12h1.41l-0.1 1.32c0.62 0.62 1.42 0.92 2.23 0.92h0.01v1.95h-2v2.5c0 0.83 0.67 1.5 1.5 1.5h7.5c1.1 0 2-0.9 2-2v-10zm-0.01 5.05c-0.43 0-0.84-0.12-1.19-0.36l0.15-1.87h-2.08l-1.03-1.03c0.61-0.36 1.31-0.55 2.03-0.55 1.07 0 2.07 0.42 2.83 1.17l1.41 1.41-0.6 0.6c-0.41 0.4-0.95 0.63-1.52 0.63zm8.01 4.95c0 0.55-0.45 1-1 1s-1-0.45-1-1v-2h-5v-2.13c0.44-0.15 0.86-0.39 1.22-0.74l0.6-0.6 2.47 2.47h0.71v-0.71l-4.6-4.59c-0.12-0.13-0.26-0.22-0.4-0.33v-0.37h7z"/>
</g>
</svg>

<?xml version="1.0" encoding="UTF-8" standalone="no"?>
<svg
   xmlns:dc="http://purl.org/dc/elements/1.1/"
   xmlns:cc="http://creativecommons.org/ns#"
   xmlns:rdf="http://www.w3.org/1999/02/22-rdf-syntax-ns#"
   xmlns:svg="http://www.w3.org/2000/svg"
   xmlns="http://www.w3.org/2000/svg"
   style="fill:#000000"
   id="svg12"
   version="1.1"
   width="16"
   viewBox="0 0 17.777778 17.777778"
   height="16"
   enable-background="new 0 0 20 20">
  <metadata
     id="metadata18">
    <rdf:RDF>
      <cc:Work
         rdf:about="">
        <dc:format>image/svg+xml</dc:format>
        <dc:type
           rdf:resource="http://purl.org/dc/dcmitype/StillImage" />
        <dc:title></dc:title>
      </cc:Work>
    </rdf:RDF>
  </metadata>
  <defs
     id="defs16" />
  <g
     transform="translate(-1.111111,-1.111111)"
     id="g10">
    <g
       id="g8">
      <path
         id="path6"
         d="M 7,4 V 4.73 C 6.32,4.41 5.6,4.23 4.87,4.23 3.59,4.23 2.31,4.72 1.33,5.69 l 2.12,2.12 h 1.41 l -0.1,1.32 c 0.62,0.62 1.42,0.92 2.23,0.92 0,0 0.01,0 0.01,0 V 12 H 5 v 2.5 C 5,15.33 5.67,16 6.5,16 H 14 c 1.1,0 2,-0.9 2,-2 V 4 Z M 6.99,9.05 C 6.56,9.05 6.15,8.93 5.8,8.69 L 5.95,6.82 H 3.87 L 2.84,5.79 C 3.45,5.43 4.15,5.24 4.87,5.24 c 1.07,0 2.07,0.42 2.83,1.17 l 1.41,1.41 -0.6,0.6 C 8.1,8.82 7.56,9.05 6.99,9.05 Z M 15,14 c 0,0.55 -0.45,1 -1,1 -0.55,0 -1,-0.45 -1,-1 V 12 H 8 V 9.87 C 8.44,9.72 8.86,9.48 9.22,9.13 L 9.82,8.53 12.29,11 H 13 V 10.29 L 8.4,5.7 C 8.28,5.57 8.14,5.48 8,5.37 V 5 h 7 z" />
    </g>
  </g>
</svg>
